X: 6
T: Tar Road To Sligo, The
Z: shanachie
S: https://thesession.org/tunes/151#setting46225
R: jig
M: 6/8
L: 1/8
K: Dmaj
|:fdB Bcd|ecA BAG|FGA ABc|dcd efg|
fdB Bcd|ecA BAG|FGA Aag|1 fdc d2e:|2 fdc d2B||
Adf Adf|gfg efg|afd dcd|Bed cBA|
Adf Adf|gfg efg|a2a bge|edc d2B|
Adf Adf|gfg efg|afd dcd|Bed cBA|
fdB gec|a3 bge|a3 bge|edc d2e||

